/* XPM */
static char *nginx_xpm[] = {
/* width height num_colors chars_per_pixel */
"16 16 54 1", 
/* colors */
"  c None",
". c #ABBAF9",
"X c #B4BAF8",
"o c #ABBAFA",
"O c #D1B9F4",
"+ c #BDBAF7",
"@ c #C8B9F6",
"# c #A7BAFA",
"$ c #C4B9F6",
"% c #B0BAF9",
"& c #C2BAF6",
"* c #CDB9F5",
"= c #B9BAF8",
"- c #ACBAF9",
"; c #C9B9F5",
": c #B5BAF8",
"> c #D2B9F4",
", c #BEBAF7",
"< c #A8BAFA",
"1 c #C5B9F6",
"2 c #B1BAF9",
"3 c #D7B9F3",
"4 c #C3BAF6",
"5 c #CEB9F5",
"6 c #BABAF8",
"7 c #A4BAFA",
"8 c #ADBAF9",
"9 c #CAB9F5",
"0 c #B6BAF8",
"q c #D3B9F4",
"w c #BFBAF7",
"e c #A9BAFA",
"r c #BBBAF7",
"t c #C6B9F6",
"y c #B2BAF9",
"u c #CFB9F5",
"i c #AEBAF9",
"p c #CBB9F5",
"a c #B7BAF8",
"s c #D4B9F4",
"d c #C0BAF7",
"f c #B3BAF8",
"g c #AABAFA",
"h c #D0B9F4",
"j c #BCBAF7",
"k c #C7B9F6",
"l c #B3BAF9",
"z c #D0B9F5",
"x c #C3B9F6",
"c c #AFBAF9",
"v c #CCB9F5",
"b c #B8BAF8",
"n c #D5B9F4",
"m c #C1BAF7",
/* pixels */
"                ",
"    ;p*uOqn3    ",
"    t@p*uOqn    ",
"   mxt@9v5h>s   ",
"   wm4    5z>   ",
"  6j,      *uO  ",
"  a=r           ",
" yX0   wmx1@9v5 ",
" c2f  6j,m41k;p ",
"  i2f  6j,d&$t  ",
"  .i%      wm$  ",
"   o8c    r+w   ",
"   <g-c2f0b6j   ",
"    #e-i%l:a    ",
"    7#e.8%yX    ",
"                "
};
