/* XPM */
static char *nginx_xpm[] = {
/* width height num_colors chars_per_pixel */
"48 48 65 1", 
/* colors */
"  c None",
". c #ABBAF9",
"X c #A2BAFB",
"o c #B4BAF8",
"O c #ABBAFA",
"+ c #D1B9F4",
"@ c #BDBAF7",
"# c #C8B9F6",
"$ c #A7BAFA",
"% c #C4B9F6",
"& c #B0BAF9",
"* c #C2BAF6",
"= c #CDB9F5",
"- c #B9BAF8",
"; c #D6B9F4",
": c #C2BAF7",
"> c #A3BAFA",
", c #ACBAF9",
"< c #A3BAFB",
"1 c #C9B9F5",
"2 c #B5BAF8",
"3 c #D2B9F4",
"4 c #BEBAF7",
"5 c #C9B9F6",
"6 c #A8BAFA",
"7 c #BABAF7",
"8 c #C5B9F6",
"9 c #B1BAF9",
"0 c #D7B9F3",
"q c #C3BAF6",
"w c #CEB9F5",
"e c #BABAF8",
"r c #A4BAFA",
"t c #ADBAF9",
"y c #CAB9F5",
"u c #B6BAF8",
"i c #D3B9F4",
"p c #BFBAF7",
"a c #A9BAFA",
"s c #BBBAF7",
"d c #C6B9F6",
"f c #B2BAF9",
"g c #D8B9F3",
"h c #CFB9F5",
"j c #A5BAFA",
"k c #AEBAF9",
"l c #CBB9F5",
"z c #B7BAF8",
"x c #D4B9F4",
"c c #C0BAF7",
"v c #A1BAFB",
"b c #B3BAF8",
"n c #AABAFA",
"m c #D0B9F4",
"M c #BCBAF7",
"N c #C7B9F6",
"B c #B3BAF9",
"V c #D0B9F5",
"C c #A6BAFA",
"Z c #C3B9F6",
"A c #AFBAF9",
"S c #CCB9F5",
"D c #B8BAF8",
"F c #D5B9F4",
"G c #C1BAF7",
/* pixels */
"                                                ",
"                                                ",
"                                                ",
"                                                ",
"                                                ",
"            #51ylS==whVm+3iixFF;00gg            ",
"            N##1ylSS=whhm+33ixxF;;0g            ",
"           8dNN#1yllS=wwhm++3ixxF;;00           ",
"           %8ddN#5yylS==whVm+3iixFF;0           ",
"          *q%%8dN##1ylSS=whhm+33ixFF;;          ",
"          G*qZ%8dNN#1yllS=whhm++3ixxF;          ",
"         pcG:*Z%8ddN#5yylS==whm++3iixFF         ",
"         4pcGG*q%              Vm+33ixF         ",
"        @@4pccG*                hm+33ixx        ",
"        MM@4ppcG                whm++3ii        ",
"       essM@44p                  whVm+3ii       ",
"       --esM@@4                  =whhm+33       ",
"      zDD-esMM                    =wwhm++3      ",
"      uzzD-ess                    S==whVm+      ",
"     o22uzD-e                      SS=whhm+     ",
"     Boo2uzDD                                   ",
"    9ffbo2uz                                    ",
"    &&9fbo2u                                    ",
"   kkA&9fBo          M@4pccG*qZ%8dNN#1yllS=ww   ",
"   ttkA&9ff         ssM@4ppcG:*Z%8ddN#5yylS==   ",
"    ,tkA&99f       -e7sM@44pcGG*q%88dN#51ylS    ",
"    .,tkAA&9       D--esM@@4pccG*qZ%8dNN#1yl    ",
"     O,ttkA&9      zDD-esMM@4ppcG:*Z%8ddN#5     ",
"     nO.,tkA&       uzD-e7sM@44pcGG*q%88dN#     ",
"      nn.,tkAA       uzD--esM@@4pccG*q%%8d      ",
"      6an.,ttk                    pcG:*Z%8      ",
"       6anO,,tk                  44pcGG*Z       ",
"       $6ann.,t                  @@4pccG*       ",
"        $6aan.,t                sMM@4ppc        ",
"        C$$6anO,                essM@44p        ",
"         CC$6ann.              D-eesM@@         ",
"         jjC$6aan.,tkkA&9fBoo2uzDD-esMM         ",
"          rjC$66anO,ttkA&9ffbo2uzzD-es          ",
"          >rjCC$6anO.,tkA&&9fbo2uuzD-e          ",
"           >rjjC$6aan.,tkAA&9fBoo2uzD           ",
"           X>rrjC$66anO,ttkA&9ffbo2uz           ",
"            X<>rjCC$6anO.,tkA&99fbo2            ",
"            vXX>rjjC$6ann.,tkAA&9fbo            ",
"                                                ",
"                                                ",
"                                                ",
"                                                ",
"                                                "
};
