/* XPM */
static char *nginx_xpm[] = {
/* width height num_colors chars_per_pixel */
"32 32 61 1", 
/* colors */
"  c None",
". c #ABBAF9",
"X c #B4BAF8",
"o c #ABBAFA",
"O c #D1B9F4",
"+ c #BDBAF7",
"@ c #C8B9F6",
"# c #A7BAFA",
"$ c #C4B9F6",
"% c #B0BAF9",
"& c #C2BAF6",
"* c #CDB9F5",
"= c #B9BAF8",
"- c #D6B9F4",
"; c #C2BAF7",
": c #A3BAFA",
"> c #ACBAF9",
", c #C9B9F5",
"< c #B5BAF8",
"1 c #D2B9F4",
"2 c #BEBAF7",
"3 c #C9B9F6",
"4 c #A8BAFA",
"5 c #BABAF7",
"6 c #C5B9F6",
"7 c #B1BAF9",
"8 c #D7B9F3",
"9 c #C3BAF6",
"0 c #CEB9F5",
"q c #BABAF8",
"w c #A4BAFA",
"e c #ADBAF9",
"r c #CAB9F5",
"t c #B6BAF8",
"y c #D3B9F4",
"u c #BFBAF7",
"i c #A9BAFA",
"p c #BBBAF7",
"a c #C6B9F6",
"s c #B2BAF9",
"d c #CFB9F5",
"f c #A5BAFA",
"g c #AEBAF9",
"h c #CBB9F5",
"j c #B7BAF8",
"k c #D4B9F4",
"l c #C0BAF7",
"z c #B3BAF8",
"x c #AABAFA",
"c c #D0B9F4",
"v c #BCBAF7",
"b c #C7B9F6",
"n c #B3BAF9",
"m c #D0B9F5",
"M c #A6BAFA",
"N c #C3B9F6",
"B c #AFBAF9",
"V c #CCB9F5",
"C c #B8BAF8",
"Z c #D5B9F4",
"A c #C1BAF7",
/* pixels */
"                                ",
"                                ",
"                                ",
"                                ",
"         @,hV*0mO1ykZ-8         ",
"        6b@,rV*0dO1ykZ-8        ",
"        $6a@3rh*0dcOykZ-        ",
"       A&N6ab@rhV0dcO1yZ-       ",
"       uA&N$ab@,hV*0mO1yk       ",
"      +2ulA          dc1yk      ",
"      pv+ul          0dcOy      ",
"     C=pv+            *dcO1     ",
"     tC=qv            V*0mO     ",
"    z<tj=                       ",
"    szXtj                       ",
"   B%7nX      +2lA&N6ab@rhV*d   ",
"   eg%7s     qv+2ul;9$6b@,hV*   ",
"    egB7s    =qpv2ulA9$6a@,r    ",
"    o>gB%    jCqpv+ulA&$6ab3    ",
"     o>eB%    jC=pv+2uA&N$a     ",
"     ix>eg            ul;9$     ",
"      ix.eg          v2ulA      ",
"      #4xo>          pv+2l      ",
"       #4ix>eB%7nX<jC=5v+       ",
"       fM4ix.eg%7sX<tC=qp       ",
"        fM#4x.>gB7sz<tj=        ",
"        :wM#4io>eB%szXtj        ",
"         :wfM4ix>eg%7nX         ",
"                                ",
"                                ",
"                                ",
"                                "
};
